X:1
T:Over and Over Again
T:Charles H. Gabriel
T:Over and Over Again
T:Public Domain
T:Public Domain
T:Public Domain
C:Charles H. Gabriel
Z:Public Domain
%%score ( 1 2 ) ( 3 4 )
L:1/8
M:6/4
K:Ab
V:1 treble 
V:2 treble 
V:3 bass 
V:4 bass 
V:1
 [Ec]3 [=D=B] [Ec]2 [CE]2 [CA]2 [_D_B]2 | [Ec]3 [=D=B] [Ec]2 [EA]6 | %2
w: 1.~Tell the sweet sto- ry of|Je- sus our king,|
w: 2.~Tell of the grace that can|save us from sin,|
w: 3.~Tell of His vic- to- ry|o- ver the grave,|
w: 4.~Tell of the joy that He|gives, and of peace,|
w: 5.~Tell of the home He has|gone to pre- pare,|
 [EB]3 [E=A] [EB]2 [Ge]2 [Fd]2 [EB]2 | (E2 A2 F2 [Ec]4) z2 | %4
w: O- ver and o- ver a-|gain; * * *|
w: O- ver and o- ver a-|gain; * * *|
w: O- ver and o- ver a-|gain; * * *|
w: O- ver and o- ver a-|gain; * * *|
w: O- ver and o- ver a-|gain; * * *|
 [Ec]3 [=D=B] [Ec]2 [CE]2 [CA]2 [_D_B]2 | [Ec]3 [=D=B] [Ec]2 [EA]6 | B3 c B2 A2 G2 [_DF]2 | %7
w: to the world of His ma-|jes- ty sing, O-|ver and o- ver a- gain.|
w: how He died our sal- va-|tion to win, O-|ver and o- ver a- gain.|
w: of His won- der- ful pow-|er to save, O-|ver and o- ver a- gain.|
w: of His bless- ings that dai-|ly in- crease, O-|ver and o- ver a- gain.|
w: of the glo- ry we with|Him may share, O-|ver and o- ver a- gain.|
 (E2 B,2 C2 [DE]4) z2 ||"^Refrain" [Ee]3 [Ed] [Ec]2 [Ec]2 [DB]2 [CA]2 | E2 A2 F2 [Ec]4 z2 | %10
w: |||
w: and * * *|* ver a- gain, O- ver|and o- ver a-|
w: |||
w: |||
w: |||
 d3 d d2 [DF]2 [FA]2 [Fd]2 | E3 A F2 [Ec]4 z2 | [EB]3 [EB] [Ec]2 [Ed]2 [Ec]2 [EB]2 | %13
w: |||
w: O- ver and o- ver a-|Tell the sweet sto-|of Christ and His glo- ry,|
w: |||
w: |||
w: |||
 [Ec]3 [Ec] [Ed]2 [Ee]4 [Fd]2 | [Ec]3 [Ec] [Ec]2 [DB]3 [DB] [DB]2 | C2 F2 D2 [CA]4 z2 |] %16
w: |||
w: O- ver and o- ver|a- gain. * * * *||
w: |||
w: |||
w: |||
V:2
 x12 | x12 | x12 | c6- x6 | x12 | x12 | =D6 D4 x2 | E6- x6 || x12 | c6- x6 | F6 x6 | c6- x6 | x12 | %13
w: |||Un-||||||||||
w: |||Tell|||O- ver|o-||gain,|gain,|ry||
w: |||Tell||||||||||
w: |||Tell||||||||||
w: |||Tell||||||||||
 x12 | x12 | A6- x6 |] %16
w: |||
w: |||
w: |||
w: |||
w: |||
V:3
 [A,,A,]3 [A,,A,] [A,,A,]2 [A,,A,]2 [A,,A,]2 [A,,A,]2 | [A,,A,]3 [A,,A,] [A,,A,]2 [C,A,]6 | %2
w: ~ ~ ~ ~ ~ ~|~ ~ ~ ~|
 [E,G,]3 [E,^F,] [E,G,]2 [E,B,]2 [E,B,]2 [E,G,]2 | (A,2 C2 D2 [A,C]4) z2 | %4
w: ~ ~ ~ ~ ~ ~|~ * * *|
 [A,,A,]3 [A,,A,] [A,,A,]2 [A,,A,]2 [A,,A,]2 [A,,A,]2 | [A,,A,]3 [A,,A,] [A,,A,]2 [C,A,]6 | %6
w: * ~ ~ ~ ~ ~|~ ~ ~ ~|
 [B,,A,]6 F,2 B,2 [B,,A,]2 | ([E,G,]2 [E,G,]2 [E,A,]2 [E,B,]4) z2 || %8
w: ~ ~ ~ ~|~ * * *|
 [A,C]3 [A,B,] A,2 A,2 A,2 A,2 | A,2 [A,C]2 [A,D]2 [A,C]4 z2 | [D,A,]6 [D,A,]4 [D,A,]2 | %11
w: ~ ~ ~ ~ and o-|ver and o- ver|gain, ~ ~|
 [A,,A,]3 [A,,A,] [A,,A,]2 [A,,A,]4 z2 | [E,G,]3 [E,G,] [E,A,]2 [E,B,]2 [E,B,]2 [E,G,]2 | %13
w: ~ ~ ~ ~|~ ~ ~ ~ ~ O-|
 A,3 A, [A,B,]2 [A,C]4 [D,A,]2 | [E,A,]6 [E,G,]4 [E,G,]2 | A,2 A,2 F,2 [A,,E,]4 z2 |] %16
w: ver and o- ver again.|||
V:4
 x12 | x12 | x12 | A,6- x6 | x12 | x12 | x6 B,,4 x2 | x12 || x4 A,2 A,2 A,2 A,2 | A,2 x10 | x12 | %11
w: |||~|||~||ver a- gain, O-|a-||
 x12 | x12 | A,3 A, x8 | x12 | A,,6- x6 |] %16
w: |||||

